dist/svgs/git-fork.svg

<svg xmlns="http://www.w3.org/2000/svg" viewBox="0 0 512 512"><path d="M444 138v18l-1 1q-4 33-32 51-3 2-3 6 0 34-12 65-23 59-79 79-14 5-28 6.5t-28 1.5q-15 1-28 6t-24 18q3 1 4 4 14 17 16 39t-9 42q-11 19-30.5 29t-39.5 8q-23-3-39.5-17T88 459q-1-3-3-11v-18l1-1q4-33 32-51 3-3 3-7V141q0-4-4-7-22-16-29-40-2-8-3-11V64q0-1 .5-1.5T86 60q5-24 23.5-40.5T152 1q25-2 45 12t28 37 0 46.5-28 37.5q-4 3-4 8v167q4-1 8-4 16-7 33-9.5t34-2.5q50-2 64-50 2-7 2.5-13.5T336 216q1-5-5-10-20-14-27.5-36.5t.5-45.5q7-23 26-37t43-13q23 0 42 14.5t26 37.5zM121 74q0 15 10.5 25.5T157 110t25.5-10.5T193 73q-1-15-11.5-25.5T156 37q-14 0-24.5 11T121 74zm36 402q14 0 24.5-10.5T193 440q0-16-10.5-26.5T157 403t-25.5 10.5T121 439t10.5 26 25.5 11zm215-293q15 0 25.5-10.5T408 146q0-14-10.5-25T372 110t-25.5 11-10.5 26 10.5 25.5T372 183z"/></svg>

<?xml version="1.0" encoding="UTF-8" standalone="no"?><svg   xmlns:svg="http://www.w3.org/2000/svg"   xmlns="http://www.w3.org/2000/svg"   version="1.1"   width="512"   height="512"   viewBox="0 0 512 512">  <path     d="M444 138V156L443 157Q439 190 411 208Q408 210 408 214Q408 248 396 279Q373 338 317 358Q303 363 289 364.5T261 366Q246 367 233 372T209 390Q212 391 213 394Q227 411 229 433T220 475Q209 494 189.5 504T150 512Q127 509 110.5 495T88 459Q87 456 85 448V430L86 429Q90 396 118 378Q121 375 121 371V141Q121 137 117 134Q95 118 88 94Q86 86 85 83V64Q85 63 85.5 62.5T86 60Q91 36 109.5 19.5T152 1Q177 -1 197 13T225 50T225 96.5T197 134Q193 137 193 142V304V309Q197 308 201 305Q217 298 234 295.5T268 293Q318 291 332 243Q334 236 334.5 229.5T336 216Q337 211 331 206Q311 192 303.5 169.5T304 124Q311 101 330 87T373 74Q396 74 415 88.5T441 126zM121 74Q121 89 131.5 99.5T157 110T182.5 99.5T193 73Q192 58 181.5 47.5T156 37Q142 37 131.5 48T121 74zM157 476Q171 476 181.5 465.5T193 440Q193 424 182.5 413.5T157 403T131.5 413.5T121 439T131.5 465T157 476zM372 183Q387 183 397.5 172.5T408 146Q408 132 397.5 121T372 110T346.5 121T336 147T346.5 172.5T372 183z"     id="git-fork" /></svg>
